X: 1
T: a Platinum Jig
C: Wouter Joubert 2022-2-5
S: posted by Wouter on the strathspey.org list 2022-2-7
R: jig
Z: 2022 John Chambers <jc:trillian.mit.edu>
M: 6/8
L: 1/8
K: Am
E |\
"Am"A2c B3A | "#7"^G2F E2G | "Am"A2c B2A | "E7"e3 e3 |\
"Am"A2c B3A | "#7"^G2F E2G | "Am"A2c "#7"B2^G | "Am"A3 A3 ||
"Dm"A2G F2D | "Am/E"E2A c3 | "E7"e2B c2d | "Am"e3 a3 |\
"Dm"a2f e2d | "Am/E"e2c A2F | E2F "E7"E2^G | "Am"A3 A2 :|
%%text In honour the platinum jubilee of Her Majesty, Queen Elizabeth II
